src/assets/sagittarius.svg

<?xml version="1.0" encoding="UTF-8" standalone="no"?>
<svg viewBox="0 0 512 512">
  <defs/>
  <desc/>
  <g>
    <path
       d="m 448,280.00001 h -40 v 16 h 40 c 4.41622,0.005 7.99504,3.58378 8,8 v 60.47 c 6.9e-4,3.44396 -2.2028,6.50185 -5.47,7.591 l -10.53,3.51 v -39.571 c -0.0154,-13.24844 -10.75156,-23.98457 -24,-24 h -24 v -90 l 8,-6 c 10.05049,-7.5723 15.97245,-19.41623 16,-32 v -10.152 c 1.56936,-1.85629 2.9336,-3.87668 4.069,-6.026 0.75605,0.11496 1.5193,0.17611 2.284,0.183 3.14886,-9.8e-4 6.2263,-0.93838 8.841,-2.693 l 17.68,-11.786 c 4.45621,-2.96311 7.13172,-7.96157 7.126,-13.313 v -7.437 c 0.006,-5.35115 -2.66944,-10.34941 -7.125,-13.313 l -18.054,-12.036 c -3.0836,-2.05095 -6.7816,-2.97236 -10.467,-2.608 l -47.573,4.757 c -117.05991,-114.1286457 43.33319,-4.33662 -27.273,2.724 l -13.929,-6.965 c -1.11082,-0.55582 -2.33588,-0.84514 -3.578,-0.845 H 304 c -4.41828,0 -8,3.58172 -8,8 v 2.781 c -0.66667,-0.21733 -1.339,-0.41933 -2.017,-0.606 l -76.076,-76.071998 -11.314,11.314 64.018,64.018998 c -5.86834,1.17233 -11.52719,3.21986 -16.787,6.074 H 169.889 L 160,115.05601 V 96.000012 c -0.0175,-7.685504 3.475,-14.95843 9.484,-19.75 l 12,-9.584 c 11.73364,-9.347606 18.55312,-23.544181 18.516,-38.546 v -4.12 c 0,-4.418278 -3.58172,-8 -8,-8 h -8 c -4.41828,0 -8,3.581722 -8,8 -0.0169,11.966555 -6.42663,23.01204 -16.808,28.964 l -21.282,12.155 c -11.07935,6.333573 -17.91458,18.119098 -17.91,30.881 v 23.999998 16 40 c 0.0163,12.761 6.85118,24.54033 17.922,30.887 l 21.261,12.144 c 10.39608,5.94079 16.81336,16.99521 16.817,28.969 0,4.41828 3.58172,8 8,8 h 8 c 4.41828,0 8,-3.58172 8,-8 v -4.12 c 0,-0.24 -0.017,-0.478 -0.02,-0.717 l 69.27,-74.6 2.75,2.749 v 12.688 c 0.0277,12.58374 5.94963,24.4276 16,32 l 8,6 v 29.056 l -57.889,28.944 H 192 c -16.75414,-0.0404 -32.84791,6.52981 -44.787,18.284 -8.31142,8.16643 -14.24786,18.43761 -17.175,29.716 h -0.178 l -1.86,16.124 v 51.876 l -28.800001,21.6 c -2.574834,1.93124 -3.741567,5.21747 -2.961,8.34 l 16.000001,64 c 0.89021,3.5614 4.09003,6.0599 7.761,6.06 h 32 c 4.41828,0 8,-3.58172 8,-8 v -6 c -0.0141,-7.63691 -2.31493,-15.09461 -6.606,-21.412 l -4.132,-16.527 5.838,-3.185 21.546,50.275 c 1.26064,2.94189 4.15339,4.84928 7.354,4.849 h 32 c 4.41828,0 8,-3.58172 8,-8 v -5.46 c -0.003,-8.07661 -2.68265,-15.9245 -7.619,-22.317 l -7.235,-25.333 c 9.97053,-8.66296 17.5342,-19.75459 21.958,-32.2 l -15.072,-5.372 c -4.00655,11.27353 -11.25375,21.11248 -20.832,28.282 -2.6536,1.98996 -3.80402,5.411 -2.892,8.6 2.151,7.533 3.966,15.162 6.234,22.662 2.06,6.812 5.811,12.146 8.184,18.572 0.54499,1.47444 0.91943,3.00641 1.116,4.566 h -18.567 l -19.789,-46.173 8.532,-8.531 c 11.17616,-10.08809 19.90125,-22.59496 25.51,-36.567 l 1.89,-4.729 h 80.932 c 13.13345,0.0223 25.95242,-4.01764 36.7,-11.566 l 17.762,-12.434 H 392 v 19.056 l -11.578,5.789 c -2.71002,1.35515 -4.4219,4.12504 -4.422,7.155 v 32 c -4e-4,5.46079 5.34948,9.31697 10.53,7.59 l 37.06,-12.354 c 9.80566,-3.25898 16.41923,-12.43495 16.41,-22.768 v -4.032 l 15.594,-5.2 c 9.80183,-3.26225 16.41245,-12.43555 16.406,-22.766 v -60.47 c -0.0154,-13.24844 -10.75156,-23.98457 -24,-24 z m -136,-48 h 24 v 16 h -24 z m 40,0 h 24 v 16 h -24 z m 40,-30.126 v -6.443 l 7.63,-7.26 c -0.94805,5.28931 -3.63303,10.11137 -7.63,13.703 z m -80,-81.38 h 14.111 l 14.311,7.155 c 1.35154,0.67953 2.86908,0.95882 4.374,0.805 l 77.15,-7.715 18.054,12.037 v 7.437 l -17.68,11.787 -76.751,-15.351 -33.569,-0.155 z m -144,15.506 h 88 c 1.57913,6e-5 3.12296,-0.46723 4.437,-1.343 6.20135,-3.66546 13.25027,-5.653 20.453,-5.767 1.079,0 2.151,0.06 3.215,0.163 l -21.305,22.947 h -54.008 l -39.223,-7.845 c -0.51665,-0.10304 -1.04218,-0.15495 -1.569,-0.155 h -8 c -4.41622,-0.005 -7.99504,-3.58378 -8,-8 0,-4.41828 -3.58172,-8 -8,-8 h 6.111 l 14.311,7.155 c 1.11082,0.55582 2.33588,0.84514 3.578,0.845 z M 136,96.000012 c -0.004,-7.023593 3.75841,-13.510034 9.857,-16.994 l 2.437,-1.392 c -2.83399,5.714107 -4.30384,12.007724 -4.294,18.386 v 15.999998 h -8 z m 9.859,96.999998 c -6.09227,-3.49353 -9.85239,-9.97715 -9.859,-17 v -32 h 1.371 c 1.35195,3.78592 3.63102,7.17273 6.629,9.851 v 22.149 c -0.01,6.37841 1.46022,12.67214 4.295,18.386 z m 35.616,12.335 -11.984,-9.574 c -6.01394,-4.79314 -9.50926,-12.07066 -9.491,-19.761 v -16 h 7.208 l 39.223,7.845 c 0.51665,0.10304 1.04218,0.15495 1.569,0.155 h 39.94 l -52.075,56.081 c -3.20358,-7.32569 -8.14245,-13.76133 -14.39,-18.751 z M 296,139.75701 v 4.737 c 0,4.41828 3.58172,8 8,8 h 32 v 23.506 h 16 v -21.747 l 50.954,10.191 c -0.166,0.171 -22.154,19.556 -22.154,19.556 H 352 v 16 h 24 v 16 h -24 v -8 h -16 v 8 h -24 v -16 h 24 v -16 h -28.686 l -27.168,-27.169 z m -7.715,47.843 7.715,7.713 v 6.561 c -4.14209,-3.72492 -6.86792,-8.76815 -7.715,-14.274 z M 424,396.46801 c 0.003,3.44459 -2.20197,6.50332 -5.471,7.589 l -26.529,8.843 v -15.956 l 11.578,-5.789 c 2.71002,-1.35515 4.4219,-4.12504 4.422,-7.155 v -32 c 0,-4.41828 -3.58172,-8 -8,-8 h -64 c -13.24844,-0.0154 -23.98457,-10.75156 -24,-24 v -16 h -16 v 16 c 0.0135,15.34248 8.79049,29.32898 22.6,36.014 l -4.733,3.313 c -8.05835,5.65971 -17.66971,8.68909 -27.517,8.673 H 208 v -32 h -16 v 38.461 l -3.328,8.327 c -7.13915,17.81473 -20.25617,32.58923 -37.1,41.788 l -15.4,8.4 c -3.19782,1.74449 -4.81338,5.42903 -3.93,8.963 1.761,7.044 3.275,14.214 5.315,21.181 1.72,5.873 5.774,10.606 6.353,16.879 h -17.664 l -13.2,-52.787 27.754,-20.812 c 2.01445,-1.51084 3.2,-3.88194 3.2,-6.4 0,0 0.164,-60.628 0.49,-62.869 3.41817,-23.61001 23.65384,-41.1287 47.51,-41.131 h 48 c 1.24212,1.4e-4 2.46718,-0.28918 3.578,-0.845 l 62.311,-31.155 H 376 v 48 h -24 v 16 h 64 c 4.41622,0.005 7.99504,3.58378 8,8 z"
    />
  </g>
  <path
     class="highlighting"
     d="m 372.781,109.57601 -1.015,-5.576 H 384 c 5.94708,-2e-4 9.81483,-6.25888 7.155,-11.578 l -0.793,-1.585 C 386.18903,82.46464 384.01149,73.23969 384,63.885 V 56 C 383.9752,33.91889 366.08111,16.0248 344,16 h -24 c -12.62254,0.0169 -23.08005,9.79777 -23.94,22.391 l -11.55,30.80001 c -1.96117,5.22976 1.90461,10.80856 7.49,10.809 h 4 v 16 h 16 v -16 h 8 c 2.12176,7e-5 4.15665,-0.84273 5.657,-2.343 l 2.343,-2.344 v 20.687 h 16 v -9.75 c 0,0 5.75,10.25 10.694,13.3 l 2.114,11.62 z M 316.687,64 h -13.143 l 6,-16 h 13.512 l 3.21,6.42 z M 344,66.43801 V 62.69 h 0.011 c 0.70193,1.15186 0.69768,2.60028 -0.011,3.74801 z M 340.327,46.767 335.155,36.422 C 333.79985,33.71198 331.02996,32.00011 328,32 h 16 c 13.24844,0.0154 23.98457,10.75156 24,24 v 7.885 c 0.009,8.19626 1.33323,16.33798 3.921,24.11501 h -3.3 c -2.69171,0.004 -5.2039,-1.34978 -6.681,-3.6 l -5.34,-8.1 c 0.443,-0.629 0.878,-1.306 1.289,-2.028 3.88734,-6.47041 3.57768,-14.62792 -0.789,-20.78501 -4.193,-6.137 -10.954,-7.341 -16.773,-6.72 z" />
  <g
     transform="translate(-514.24934,-22.045694)">
    <path
       class="highlighting"
       d="m 634.24934,142.04569 h -16 c 4e-4,-5.46079 -5.34948,-9.31697 -10.53,-7.59 l -24,8 c -7.29571,2.43019 -7.29571,12.74981 0,15.18 l 24,8 c 10.09957,1.88565 10.53,-7.59 10.53,-7.59 h 16 z"
    />
  </g>
  <g transform="translate(-484.78219,-59.164682)">
    <path
       class="highlighting"
       d="m 614.82019,387.16468 h -0.178 c -14.10907,0.0638 -26.53331,9.30533 -30.652,22.8 l -7.381,24.593 c -4.58225,15.54573 -17.09934,27.47294 -32.848,31.3 l 17.574,-61.506 c 5.66706,-19.60758 23.58998,-33.12594 44,-33.187 h 7.447 v -16 h -7.45 c -27.54533,0.0849 -51.73308,18.32982 -59.382,44.792 l -20.86,73.008 c -1.46195,5.11121 2.37582,10.2003 7.692,10.2 27.3139,0.12733 51.42485,-17.8116 59.152,-44.01 l 7.382,-24.594 c 1.86267,-6.09098 15.18746,-11.61629 15.18746,-11.61629 z"
    />
  </g>
</svg>

<?xml version="1.0" ?>
<svg viewBox="0 0 512 512" 
    xmlns="http://www.w3.org/2000/svg">
    <title/>
    <desc/>
    <g id="Outline">
        <path d="M448,280H408v16h40a8.009,8.009,0,0,1,8,8v60.47a8,8,0,0,1-5.47,7.591L440,375.571V336a24.028,24.028,0,0,0-24-24H392V222l8-6a40.176,40.176,0,0,0,16-32V173.848a33.754,33.754,0,0,0,4.069-6.026,16.163,16.163,0,0,0,2.284.183,15.875,15.875,0,0,0,8.841-2.693l17.68-11.786A15.967,15.967,0,0,0,456,140.213v-7.437a15.969,15.969,0,0,0-7.125-13.313l-18.054-12.036a16.049,16.049,0,0,0-10.467-2.608l-47.573,4.757L371.766,104H384a8,8,0,0,0,7.155-11.578l-.793-1.585A60.586,60.586,0,0,1,384,63.885V56a40.045,40.045,0,0,0-40-40H320a24.028,24.028,0,0,0-23.94,22.391l-11.55,30.8A8,8,0,0,0,292,80h4V96h16V80h8a8,8,0,0,0,5.657-2.343L328,75.313V96h16V86.25s5.75,10.25,10.694,13.3l2.114,11.62-11.3,1.13-13.929-6.965a7.994,7.994,0,0,0-3.578-.845H304a8,8,0,0,0-8,8v2.781q-1-.326-2.017-.606L217.907,38.593,206.593,49.907l64.018,64.019A59.732,59.732,0,0,0,253.824,120H169.889L160,115.056V96a25.187,25.187,0,0,1,9.484-19.75l12-9.584A49.127,49.127,0,0,0,200,28.12V24a8,8,0,0,0-8-8h-8a8,8,0,0,0-8,8,33.441,33.441,0,0,1-16.808,28.964L137.91,65.119A35.556,35.556,0,0,0,120,96v24H104a8,8,0,0,0-10.53-7.59l-24,8a8,8,0,0,0,0,15.18l24,8A8,8,0,0,0,104,136h16v40a35.655,35.655,0,0,0,17.922,30.887l21.261,12.144A33.377,33.377,0,0,1,176,248a8,8,0,0,0,8,8h8a8,8,0,0,0,8-8v-4.12c0-.24-.017-.478-.02-.717l69.27-74.6,2.75,2.749V184a40.177,40.177,0,0,0,16,32l8,6v29.056L238.111,280H192a63.62,63.62,0,0,0-44.787,18.284A64.308,64.308,0,0,0,130.038,328h-.178a32.2,32.2,0,0,0-30.652,22.8l-7.381,24.593a45.429,45.429,0,0,1-32.848,31.3l17.574-61.506a45.944,45.944,0,0,1,44-33.187H128V296h-7.45a62.012,62.012,0,0,0-59.382,44.792L40.308,413.8A8,8,0,0,0,48,424a61.373,61.373,0,0,0,59.152-44.01l7.382-24.594A16.094,16.094,0,0,1,128,344.124V396L99.2,417.6a8,8,0,0,0-2.961,8.34l16,64A8,8,0,0,0,120,496h32a8,8,0,0,0,8-8v-6a38.233,38.233,0,0,0-6.606-21.412l-4.132-16.527,5.838-3.185,21.546,50.275A8,8,0,0,0,184,496h32a8,8,0,0,0,8-8v-5.46a36.539,36.539,0,0,0-7.619-22.317l-7.235-25.333a76.677,76.677,0,0,0,21.958-32.2l-15.072-5.372A60.731,60.731,0,0,1,195.2,425.6a8,8,0,0,0-2.892,8.6c2.151,7.533,3.966,15.162,6.234,22.662,2.06,6.812,5.811,12.146,8.184,18.572A20.6,20.6,0,0,1,207.842,480H189.275l-19.789-46.173,8.532-8.531a98.887,98.887,0,0,0,25.51-36.567l1.89-4.729H286.35a63.667,63.667,0,0,0,36.7-11.566L340.812,360H392v19.056l-11.578,5.789A8,8,0,0,0,376,392v32a8,8,0,0,0,10.53,7.59l37.06-12.354A23.97,23.97,0,0,0,440,396.468v-4.032l15.594-5.2A23.978,23.978,0,0,0,472,364.47V304A24.028,24.028,0,0,0,448,280ZM316.687,64H303.544l6-16h13.512l3.21,6.42ZM344,66.438V62.69l.011,0A3.584,3.584,0,0,1,344,66.438Zm-3.673-19.671-5.172-10.345A8,8,0,0,0,328,32h16a24.028,24.028,0,0,1,24,24v7.885A76.659,76.659,0,0,0,371.921,88h-3.3a7.978,7.978,0,0,1-6.681-3.6L356.6,76.3c.443-.629.878-1.306,1.289-2.028a19.008,19.008,0,0,0-.789-20.785C352.907,47.35,346.146,46.146,340.327,46.767ZM312,232h24v16H312Zm40,0h24v16H352Zm40-30.126v-6.443l7.63-7.26A24.151,24.151,0,0,1,392,201.874Zm-80-81.38h14.111l14.311,7.155a7.94,7.94,0,0,0,4.374.805l77.15-7.715L440,132.776v7.437L422.32,152l-76.751-15.351L312,136.494ZM168,136h88a8,8,0,0,0,4.437-1.343,41.486,41.486,0,0,1,20.453-5.767c1.079,0,2.151.06,3.215.163L262.8,152H208.792l-39.223-7.845A8.026,8.026,0,0,0,168,144h-8a8.009,8.009,0,0,1-8-8,8,8,0,0,0-8-8h6.111l14.311,7.155A7.994,7.994,0,0,0,168,136ZM136,96a19.559,19.559,0,0,1,9.857-16.994l2.437-1.392A41.237,41.237,0,0,0,144,96v16h-8Zm9.859,97A19.618,19.618,0,0,1,136,176V144h1.371A24.059,24.059,0,0,0,144,153.851V176a41.224,41.224,0,0,0,4.295,18.386Zm35.616,12.335-11.984-9.574A25.193,25.193,0,0,1,160,176V160h7.208l39.223,7.845A8.026,8.026,0,0,0,208,168h39.94l-52.075,56.081A49.253,49.253,0,0,0,181.475,205.33ZM296,139.757v4.737a8,8,0,0,0,8,8h32V176h16V154.253l50.954,10.191C402.788,164.615,380.8,184,380.8,184H352v16h24v16H352v-8H336v8H312V200h24V184H307.314l-27.168-27.169ZM288.285,187.6,296,195.313v6.561A24.132,24.132,0,0,1,288.285,187.6ZM424,396.468a7.989,7.989,0,0,1-5.471,7.589L392,412.9V396.944l11.578-5.789A8,8,0,0,0,408,384V352a8,8,0,0,0-8-8H336a24.028,24.028,0,0,1-24-24V304H296v16a40.051,40.051,0,0,0,22.6,36.014l-4.733,3.313A47.741,47.741,0,0,1,286.35,368H208V336H192v38.461l-3.328,8.327a82.64,82.64,0,0,1-37.1,41.788l-15.4,8.4a8,8,0,0,0-3.93,8.963c1.761,7.044,3.275,14.214,5.315,21.181,1.72,5.873,5.774,10.606,6.353,16.879H126.246l-13.2-52.787L140.8,406.4A8,8,0,0,0,144,400s.164-60.628.49-62.869A48.01,48.01,0,0,1,192,296h48a7.994,7.994,0,0,0,3.578-.845L305.889,264H376v48H352v16h64a8.009,8.009,0,0,1,8,8Z"/>
    </g>
</svg>
